X: 8790
T: Cuckoo's Nest, The
R: hornpipe
M: 4/4
K: Dmajor
Bc|:"D"d2 dc dfed|"A"c2 A2 A2 AB|"C"=c2 cB cedc|"G"BGAF G2 FG|
"D"AFDF Acde|"D"fdAF "G"G2 FG|"D"ABAG FEDF|1 "A"EDCE "D"D2 Bc:|2 "A"EDCE "D"D2 FG||
|:"D"AFDF AFDF|"D"AGFE D2 EF|"C"GE=CE GECE|"C"GAGF "A"E2 FG|
"D"AFDF Acde|"D"fdAF "G"G2 FG|"D"ABAG FEDF|1 "A"EDCE "D"D2 FG:|2 "A"EDCE "D"D4||

